X: 030634
T: Crowley's Recollection
M: 6/8
L: 1/8
S: Luke O'Malley vol 1
Z: B.Black
R: jig
K: G
DGG GAG | FEF D2 c | BAB GBd | cAG FDC |
DGG GAG | FEF D2 B/c/ |ded cAG |1 AGF GAG :|2\ 
AGF G2 B/c/ ||
d2 g fdc | ded cAG | dge dcA | GFG ABc |
def gfg | agf g2 e | ded cAG |1 AGF GAG :|2\ 
AGF G2 ||
